packages/icons/src/siren-fill.svg

<svg width="24" height="24" viewBox="0 0 24 24" fill="none" xmlns="http://www.w3.org/2000/svg">
<path fill-rule="evenodd" clip-rule="evenodd" d="M12.0001 3.60687C15.8109 3.60687 18.9001 6.69611 18.9001 10.5069L18.9008 13.7495C20.0615 14.1283 20.9001 15.2197 20.9001 16.5069C20.9001 18.1085 19.6017 19.4069 18.0001 19.4069H6.0001C4.39847 19.4069 3.1001 18.1085 3.1001 16.5069C3.1001 15.2193 3.93921 14.1277 5.10042 13.7491L5.1001 10.5069C5.1001 6.69611 8.18933 3.60687 12.0001 3.60687ZM13.0001 6.60687L12.7818 6.61165C10.1769 6.72583 8.1001 8.87382 8.1001 11.5069H9.9001L9.905 11.331C9.9962 9.70072 11.3471 8.40687 13.0001 8.40687V6.60687ZM6.27982 2.46037L6.35776 2.54235L7.02132 3.33315C7.34082 3.71391 7.29115 4.28159 6.91039 4.60109C6.55891 4.89602 6.04817 4.87639 5.72038 4.57214L5.64244 4.49016L4.97888 3.69936C4.65938 3.3186 4.70904 2.75092 5.08981 2.43142C5.44129 2.13649 5.95203 2.15612 6.27982 2.46037ZM18.9104 2.43142C19.2619 2.72634 19.3312 3.23273 19.0885 3.60838L19.0213 3.69936L18.3578 4.49016C18.0383 4.87093 17.4706 4.9206 17.0898 4.60109C16.7383 4.30617 16.669 3.79978 16.9117 3.42413L16.9789 3.33315L17.6424 2.54235C17.9619 2.16158 18.5296 2.11191 18.9104 2.43142ZM12.0001 0.100098C12.4589 0.100098 12.8375 0.443434 12.8931 0.887204L12.9001 1.0001V2.03241C12.9001 2.52947 12.4972 2.93241 12.0001 2.93241C11.5413 2.93241 11.1626 2.58908 11.1071 2.14531L11.1001 2.03241V1.0001C11.1001 0.503041 11.503 0.100098 12.0001 0.100098Z" fill="black"/>
</svg>

<svg xmlns="http://www.w3.org/2000/svg" width="24" height="24" fill="none" viewBox="0 0 24 24">
  <path fill="#000" fill-rule="evenodd" d="M12 3.607a6.9 6.9 0 0 1 6.9 6.9v3.242a2.901 2.901 0 0 1-.9 5.658H6a2.9 2.9 0 0 1-.9-5.658v-3.242a6.9 6.9 0 0 1 6.9-6.9Zm1 3-.218.005A4.9 4.9 0 0 0 8.1 11.507h1.8l.005-.176A3.1 3.1 0 0 1 13 8.407v-1.8ZM6.28 2.46l.078.082.663.791a.9.9 0 0 1-1.3 1.24l-.079-.083-.663-.79a.9.9 0 0 1 1.3-1.24Zm12.63-.029a.9.9 0 0 1 .178 1.177l-.067.091-.663.791a.9.9 0 0 1-1.446-1.066l.067-.09.663-.792a.9.9 0 0 1 1.268-.11ZM12 .101a.9.9 0 0 1 .893.786L12.9 1v1.032a.9.9 0 0 1-1.793.113l-.007-.113V1a.9.9 0 0 1 .9-.9Z" clip-rule="evenodd"/>
</svg>
